2 Export/Icons/Brands/Telegram.svg

<svg xmlns="http://www.w3.org/2000/svg" xmlns:xlink="http://www.w3.org/1999/xlink" width="24" height="24" viewBox="0 0 24 24">
  <defs>
    <path id="telegram-a" d="M20.9451934,5.40167537 L18.2367377,18.1936891 C18.0491716,19.1015094 17.5014783,19.3190862 16.7362083,18.898938 L12.6097522,15.8453605 L10.614048,17.7735409 C10.3889686,17.9986203 10.2014024,18.1936891 9.78875681,18.1936891 C9.2485662,18.1936891 9.33859797,17.9911176 9.15853443,17.4809376 L7.73303144,12.8367989 L3.64408863,11.5613488 C2.75877624,11.2987562 2.75127359,10.6910418 3.83915746,10.2483856 L19.7897857,4.09621473 C20.5175425,3.77360089 21.2152887,4.27627826 20.9376908,5.39417272 L20.9451934,5.40167537 Z"/>
  </defs>
  <g fill="none" fill-rule="evenodd">
    <polygon points="0 0 24 0 24 24 0 24"/>
    <mask id="telegram-b" fill="#fff">
      <use xlink:href="#telegram-a"/>
    </mask>
    <use fill="#000" xlink:href="#telegram-a"/>
    <g fill="#000" mask="url(#telegram-b)">
      <rect width="24" height="24"/>
    </g>
  </g>
</svg>

<svg xmlns="http://www.w3.org/2000/svg" xmlns:xlink="http://www.w3.org/1999/xlink" width="24" height="24" viewBox="0 0 24 24">
  <defs>
    <path id="telegram-a" d="M20.945 5.402l-2.708 12.792c-.188.908-.736 1.125-1.5.705l-4.127-3.054-1.996 1.929c-.225.225-.413.42-.825.42-.54 0-.45-.203-.63-.713l-1.426-4.644-4.089-1.276c-.885-.262-.893-.87.195-1.313l15.95-6.152c.729-.322 1.426.18 1.149 1.298l.007.008z"/>
  </defs>
  <g fill="none" fill-rule="evenodd">
    <polygon points="0 0 24 0 24 24 0 24"/>
    <mask id="telegram-b" fill="#fff">
      <use xlink:href="#telegram-a"/>
    </mask>
    <use fill="#000" xlink:href="#telegram-a"/>
    <g fill="#000" mask="url(#telegram-b)">
      <rect width="24" height="24"/>
    </g>
  </g>
</svg>
